icons/archive-drawer-line.svg

<svg viewBox="0 0 24 24" fill="currentColor" xmlns="http://www.w3.org/2000/svg"><path d="M3 2.9918C3 2.44405 3.44495 2 3.9934 2H20.0066C20.5552 2 21 2.45531 21 2.9918V21.0082C21 21.556 20.5551 22 20.0066 22H3.9934C3.44476 22 3 21.5447 3 21.0082V2.9918ZM19 11V4H5V11H19ZM19 13H5V20H19V13ZM9 6H15V8H9V6ZM9 15H15V17H9V15Z"/></svg>

<svg xmlns="http://www.w3.org/2000/svg" viewBox="0 0 24 24">
    <g>
        <path fill="none" d="M0 0h24v24H0z"/>
        <path d="M3 2.992C3 2.444 3.445 2 3.993 2h16.014a1 1 0 0 1 .993.992v18.016a.993.993 0 0 1-.993.992H3.993A1 1 0 0 1 3 21.008V2.992zM19 11V4H5v7h14zm0 2H5v7h14v-7zM9 6h6v2H9V6zm0 9h6v2H9v-2z"/>
    </g>
</svg>
